packages/katcn/src/icons/svg/volume-solid.svg

<svg width="24" height="25" viewBox="0 0 24 25" fill="none" xmlns="http://www.w3.org/2000/svg">
<path d="M13.7 2.508C12.7 2.008 11.6 2.208 10.7 2.908C8.6 4.608 6.3 6.208 3.8 7.508C2.1 8.408 1 10.208 1 12.208C1 14.108 2.1 15.908 3.8 16.908C6.1 18.108 8.4 19.708 10.7 21.608C11.2 22.008 11.8 22.208 12.5 22.208C12.9 22.208 13.3 22.108 13.7 21.908C14.7 21.408 15.3 20.508 15.3 19.408V5.008C15.3 3.908 14.7 2.908 13.7 2.508Z" fill="black"/>
<path d="M17.3 15.008C17.5 15.208 17.8 15.308 18 15.308C18.2 15.308 18.5 15.208 18.7 15.008C19.5 14.308 19.9 13.208 19.9 12.108C19.9 11.008 19.5 10.008 18.7 9.20799C18.3 8.80799 17.7 8.80799 17.3 9.20799C16.9 9.60799 16.9 10.208 17.3 10.608C17.7 11.008 17.9 11.508 17.9 12.008C17.9 12.508 17.7 13.008 17.3 13.408C16.9 14.008 16.9 14.608 17.3 15.008Z" fill="black"/>
<path d="M18.5 5.30799C18 5.10799 17.4 5.30799 17.2 5.80799C17 6.30799 17.2 6.90799 17.7 7.10799C19.7 8.00799 21 10.008 21 12.108C21 14.308 19.7 16.308 17.6 17.208C17.1 17.408 16.9 18.008 17.1 18.508C17.3 18.908 17.6 19.108 18 19.108C18.1 19.108 18.3 19.108 18.4 19.008C21.2 17.908 23 15.208 23 12.208C23 9.20799 21.2 6.50799 18.5 5.30799Z" fill="black"/>
</svg>

<svg xmlns="http://www.w3.org/2000/svg" fill="none" viewBox="0 0 24 25"><path fill="#000" d="M13.7 2.508c-1-.5-2.1-.3-3 .4-2.1 1.7-4.4 3.3-6.9 4.6-1.7.9-2.8 2.7-2.8 4.7 0 1.9 1.1 3.7 2.8 4.7 2.3 1.2 4.6 2.8 6.9 4.7q.75.6 1.8.6.6 0 1.2-.3c1-.5 1.6-1.4 1.6-2.5v-14.4c0-1.1-.6-2.1-1.6-2.5m3.6 12.5c.2.2.5.3.7.3s.5-.1.7-.3c.8-.7 1.2-1.8 1.2-2.9s-.4-2.1-1.2-2.9c-.4-.4-1-.4-1.4 0s-.4 1 0 1.4.6.9.6 1.4-.2 1-.6 1.4c-.4.6-.4 1.2 0 1.6"/><path fill="#000" d="M18.5 5.308c-.5-.2-1.1 0-1.3.5s0 1.1.5 1.3c2 .9 3.3 2.9 3.3 5 0 2.2-1.3 4.2-3.4 5.1-.5.2-.7.8-.5 1.3q.3.6.9.6c.1 0 .3 0 .4-.1 2.8-1.1 4.6-3.8 4.6-6.8s-1.8-5.7-4.5-6.9"/></svg>
